source/svgs/bowtie/uE95E-package-fill.svg

<svg xmlns="http://www.w3.org/2000/svg" viewBox="0 0 448 448"><path d="M192 448h-160v-128h160v128zm224-128h-160v128h160v-128zm0-192v128h-160v-115.187c-3.004.342-5.963.672-8.676.96l-23.324 2.285-23.324-2.285c-2.713-.29-5.672-.62-8.676-.963v115.19h-160v-128h86.404c-1.063-.346-2.307-.678-3.248-1.03-35.75-13.423-47.594-34.892-51.25-50.532-5.094-21.906 3.438-43.25 14.188-54.688 24.375-26.063 71-16.78 102.125 7.28 16.091 12.47 32.401 39.975 43.781 61.953 11.38-21.98 27.695-49.482 43.81-61.95 31-24.032 77.75-33.267 102.124-7.267 10.72 11.422 19.25 32.766 14.156 54.672-3.655 15.64-15.5 37.11-51.25 50.547-.93.35-2.155.676-3.202 1.016h86.362zm-218.562-18.766c-11.28-22.125-25.78-46.36-36.813-54.89-13.5-10.47-30-16.298-42.72-16.298-7.03 0-12.905 1.797-16.468 5.594-3.844 4.063-8.906 14.578-6.375 25.547 3.406 14.547 18.906 23.172 31.344 27.828 12.75 4.798 45.25 9.298 71.032 12.22zm53.093 0c25.817-2.922 58.317-7.422 71.067-12.203 12.438-4.67 27.938-13.293 31.344-27.84 2.53-10.97-2.53-21.484-6.344-25.53-3.563-3.814-9.47-5.61-16.53-5.61-12.69 0-29.19 5.844-42.657 16.297-11.064 8.547-25.595 32.78-36.877 54.89z"/></svg>

<svg xmlns="http://www.w3.org/2000/svg" viewBox="0 0 448 448"><path d="M192 448H32V320h160v128zm224-128H256v128h160V320zm0-192v128H256V140.813c-3.004.342-5.963.672-8.676.96L224 144.058l-23.324-2.285c-2.713-.29-5.672-.62-8.676-.963V256H32V128h86.404c-1.063-.346-2.307-.678-3.248-1.03-35.75-13.423-47.594-34.892-51.25-50.532-5.094-21.906 3.438-43.25 14.188-54.688 24.375-26.063 71-16.78 102.125 7.28C196.31 41.5 212.62 69.005 224 90.983c11.38-21.98 27.695-49.482 43.81-61.95 31-24.032 77.75-33.267 102.124-7.267 10.72 11.422 19.25 32.766 14.156 54.672-3.655 15.64-15.5 37.11-51.25 50.547-.93.35-2.155.676-3.202 1.016H416zm-218.562-18.766c-11.28-22.125-25.78-46.36-36.813-54.89-13.5-10.47-30-16.298-42.72-16.298-7.03 0-12.905 1.797-16.468 5.594-3.844 4.063-8.906 14.578-6.375 25.547 3.406 14.547 18.906 23.172 31.344 27.828 12.75 4.798 45.25 9.298 71.032 12.22zm53.093 0c25.817-2.922 58.317-7.422 71.067-12.203 12.438-4.67 27.938-13.293 31.344-27.84 2.53-10.97-2.53-21.484-6.344-25.53-3.563-3.814-9.47-5.61-16.53-5.61-12.69 0-29.19 5.844-42.657 16.297-11.064 8.547-25.595 32.78-36.877 54.89z"/></svg>
